app/assets/images/heroicons/micro/user-plus.svg

<svg width="16" height="16" viewBox="0 0 16 16" fill="none" xmlns="http://www.w3.org/2000/svg">
<path d="M8.5 4.5C8.5 5.88071 7.38071 7 6 7C4.61929 7 3.5 5.88071 3.5 4.5C3.5 3.11929 4.61929 2 6 2C7.38071 2 8.5 3.11929 8.5 4.5Z" fill="black"/>
<path d="M9.99951 13C10.5518 13 11.0099 12.5478 10.9008 12.0064C10.44 9.72096 8.42072 8 5.99951 8C3.57829 8 1.55903 9.72096 1.09823 12.0064C0.989075 12.5478 1.44722 13 1.99951 13H9.99951Z" fill="black"/>
<path d="M12.5 3.5C12.9142 3.5 13.25 3.83579 13.25 4.25V5.25H14.25C14.6642 5.25 15 5.58579 15 6C15 6.41421 14.6642 6.75 14.25 6.75H13.25V7.75C13.25 8.16421 12.9142 8.5 12.5 8.5C12.0858 8.5 11.75 8.16421 11.75 7.75V6.75H10.75C10.3358 6.75 10 6.41421 10 6C10 5.58579 10.3358 5.25 10.75 5.25H11.75V4.25C11.75 3.83579 12.0858 3.5 12.5 3.5Z" fill="black"/>
</svg>

<svg xmlns="http://www.w3.org/2000/svg" viewBox="0 0 16 16" fill="currentColor" aria-hidden="true" data-slot="icon">
  <path d="M8.5 4.5a2.5 2.5 0 1 1-5 0 2.5 2.5 0 0 1 5 0ZM10 13c.552 0 1.01-.452.9-.994a5.002 5.002 0 0 0-9.802 0c-.109.542.35.994.902.994h8ZM12.5 3.5a.75.75 0 0 1 .75.75v1h1a.75.75 0 0 1 0 1.5h-1v1a.75.75 0 0 1-1.5 0v-1h-1a.75.75 0 0 1 0-1.5h1v-1a.75.75 0 0 1 .75-.75Z"/>
</svg>
